icons/svg/stackoverflow.svg

﻿<?xml version="1.0" encoding="utf-8"?>
<!DOCTYPE svg PUBLIC "-//W3C//DTD SVG 1.1//EN" "http://www.w3.org/Graphics/SVG/1.1/DTD/svg11.dtd">
<svg xmlns="http://www.w3.org/2000/svg" xmlns:xlink="http://www.w3.org/1999/xlink" version="1.1" baseProfile="full" width="24" height="24" viewBox="0 0 24.00 24.00" enable-background="new 0 0 24.00 24.00" xml:space="preserve">
	<path fill="#000000" fill-opacity="1" stroke-width="1.33333" stroke-linejoin="miter" d="M 17.3566,20.2039L 17.3566,14.8161L 19.1523,14.8161L 19.1523,22L 3,22L 3,14.8161L 4.79576,14.8161L 4.79576,20.2039L 17.3566,20.2039 Z M 6.77203,14.3205L 7.14139,12.563L 15.9286,14.4098L 15.5593,16.1674L 6.77203,14.3205 Z M 7.9346,10.113L 8.69279,8.48514L 16.8325,12.276L 16.0743,13.9039L 7.9346,10.113 Z M 10.1872,6.11971L 11.3364,4.73976L 18.2362,10.486L 17.0869,11.866L 10.1872,6.11971 Z M 14.6412,1.8721L 20,9.07685L 18.5591,10.1486L 13.2003,2.94382L 14.6412,1.8721 Z M 6.59358,18.4078L 6.59358,16.6119L 15.5727,16.6119L 15.5727,18.4078L 6.59358,18.4078 Z "/>
</svg>

<svg xmlns="http://www.w3.org/2000/svg" version="1.1" baseProfile="full" width="24" height="24" viewBox="0 0 24.00 24.00" xml:space="preserve"><path fill="#000" fill-opacity="1" stroke-width="1.333" stroke-linejoin="miter" d="M17.357 20.204v-5.388h1.795V22H3v-7.184h1.796v5.388h12.56zM6.772 14.32l.37-1.757 8.787 1.847-.37 1.757L6.77 14.32zm1.163-4.207l.758-1.628 8.14 3.79-.76 1.63-8.138-3.792zm2.252-3.993l1.15-1.38 6.9 5.746-1.15 1.38-6.9-5.746zm4.454-4.248L20 9.077l-1.44 1.072-5.36-7.206 1.44-1.072zM6.595 18.408v-1.796h8.98v1.796h-8.98z"/></svg>
